X:100
T:Steyrer Tanz in G, nr. 69
C:traditionell
R:Steirer
A:Hallstatt, Salzkammergut
B:Corpus Musicae Popularis Austriacae (COMPA), 5.Band: J.M.Schmalnauer " Tanz Musik", Verlag Boehlau, Wien 1996
S:manuscript des Johann Michael Schmalnauer um 1820
N:im der quelle in G
Z:abc transcription Simon Wascher
F:http://simonwascher.info/TradArchiv/
M:3/4
L:1/8
K:G
V:1
%violino 1mo
P:g:Ap
(db) (b3 c') | ba">"Ta4 | (fa) a3 b | ag g4 |\
Bd d3 e | dc c4 | Df f3 a | g6 :|
Bd d3 e | dc c4 | Df a3 b | ag g4 |\
Bd d3 e | dc c4 | Df f3 a | g4 x2 :|
V:2
%violino 2do
Bg g3 a | gf">"Tf4 | df f3 g | cB B4 |\
GB B3 c | BA [A4 D4] | FA A3 c | B6 :|
GB B3 c | BA A4 | FA [c3 D4] d | cB [B4 D6] |\
(GB) B3 c | BA A4 | FA [A3 D4] c | [B4 D4] :|

